svg/color/muon.svg

<svg width="40" height="40" viewBox="0 0 40 40" fill="none" xmlns="http://www.w3.org/2000/svg">
<g clip-path="url(#clip0_819_3721)">
<path d="M20 0C31.0457 0 40 8.9543 40 20C40 31.0457 31.0457 40 20 40C8.95431 40 7.90517e-06 31.0457 0 20C6.58765e-07 8.95431 8.95431 1.97595e-06 20 0Z" fill="#CFCFCF"/>
<path d="M26 6C30.4183 6 34 9.58172 34 14V26C34 30.4183 30.4183 34 26 34H14C9.58172 34 6 30.4183 6 26V14C6 9.58172 9.58172 6 14 6H26Z" fill="#100F0D"/>
<path d="M25.5636 14.75C28.4772 14.75 30 16.4485 30 19.6988V25.2624H27.833V19.6988C27.833 17.693 27.0277 16.7266 25.5636 16.7266C24.0995 16.7266 23.2942 17.693 23.2942 19.6988V25.2624H21.1272V19.6988C21.1272 17.693 20.3219 16.7266 18.8578 16.7266C17.3938 16.7267 16.5884 17.6931 16.5884 19.6988V21.8801C16.5884 24.3106 15.4171 25.2624 13.0745 25.2624H10V23.2858H13.0745C13.997 23.2858 14.4216 22.9197 14.4216 21.8801V19.6988C14.4216 16.4485 15.9443 14.75 18.8578 14.75C20.3805 14.75 21.5372 15.2918 22.2253 16.3313C22.9427 15.2918 24.0409 14.75 25.5636 14.75Z" fill="white"/>
</g>
<defs>
<clipPath id="clip0_819_3721">
<rect width="40" height="40" fill="white"/>
</clipPath>
</defs>
</svg>

<svg xmlns="http://www.w3.org/2000/svg" width="40" height="40" fill="none" viewBox="0 0 40 40"><g clip-path="url(#muon_svg-a)"><path fill="#CFCFCF" d="M20 0c11.046 0 20 8.954 20 20s-8.954 20-20 20S0 31.046 0 20 8.954 0 20 0"/><path fill="#100F0D" d="M26 6a8 8 0 0 1 8 8v12a8 8 0 0 1-8 8H14a8 8 0 0 1-8-8V14a8 8 0 0 1 8-8z"/><path fill="#fff" d="M25.564 14.75c2.913 0 4.436 1.698 4.436 4.949v5.563h-2.167V19.7c0-2.006-.805-2.972-2.27-2.972-1.463 0-2.269.966-2.269 2.972v5.563h-2.167V19.7c0-2.006-.805-2.972-2.27-2.972-1.463 0-2.269.966-2.269 2.972v2.181c0 2.43-1.17 3.382-3.514 3.382H10v-1.976h3.075c.922 0 1.347-.366 1.347-1.406V19.7c0-3.25 1.522-4.949 4.436-4.949 1.523 0 2.68.542 3.367 1.581.718-1.04 1.816-1.581 3.339-1.581"/></g><defs><clipPath id="muon_svg-a"><path fill="#fff" d="M0 0h40v40H0z"/></clipPath></defs></svg>
